X:121
T:Billy McComiskeys Reel 
R:reel
C: 2005, 2010 L.E. McCullough 
M:4/4
L:1/8
K:Dmix 
|: A~d3 cAGF | GA~A2 cABG | A~d3 AdAG | FAAF ~G2FG |
A~D3 FGAF | G~c3 AGcG | A~D3 cAGF | GECE D2FG :|
|: A~d3 fded | egfe dcec | d~A3 dAFA | GFEF ~G2cG |
A~d3 f~d3 | Gcef ~g3e | ~f3d geag |1 eGce d2FG :|2 eGce d2de |]
|: ~f2df ~f2gf | e~c3 e3e | edef gceg | fedc d2de | 
f~d3 fdgd | f~d3 ~c3d | ~e3f edcA |1 GECE D2de :|2 GECE D2FG ||

